brandFactory_export/1.Light/Museo_1Light.svg

<?xml version="1.0" encoding="UTF-8"?>
<svg width="24px" height="24px" viewBox="0 0 24 24" version="1.1" xmlns="http://www.w3.org/2000/svg" xmlns:xlink="http://www.w3.org/1999/xlink">
    <title>1.Light/Museo_1Light</title>
    <g id="Symbols" stroke="none" stroke-width="1" fill="none" fill-rule="evenodd">
        <g id="1.Light/Museo_1Light" fill="#5CB615" fill-rule="nonzero">
            <path d="M1.09915966,22.6521008 L22.5882353,22.6521008 L22.5882353,20.0571429 L1.09915966,20.0571429 L1.09915966,22.6521008 Z M4.0302521,19.0487395 L5.9697479,19.0487395 L5.9697479,8.9210084 L4.0302521,8.9210084 L4.0302521,19.0487395 L4.0302521,19.0487395 Z M11.8453782,1.14957983 L21.5529412,7.91260504 L20.2084034,7.91260504 C20.205042,7.91260504 20.2016807,7.9092437 20.1983193,7.9092437 C20.194958,7.9092437 20.1915966,7.91260504 20.1882353,7.91260504 L17.2672269,7.91260504 C17.2638655,7.91260504 17.2605042,7.9092437 17.2571429,7.9092437 C17.2537815,7.9092437 17.2504202,7.91260504 17.2470588,7.91260504 L13.3445378,7.91260504 C13.3411765,7.91260504 13.3378151,7.9092437 13.3344538,7.9092437 C13.3310924,7.9092437 13.3277311,7.91260504 13.3243697,7.91260504 L10.4033613,7.91260504 C10.4,7.91260504 10.3966387,7.9092437 10.3932773,7.9092437 C10.389916,7.9092437 10.3865546,7.91260504 10.3831933,7.91260504 L6.48067227,7.91260504 C6.47731092,7.91260504 6.47394958,7.9092437 6.47058824,7.9092437 C6.46722689,7.9092437 6.46386555,7.91260504 6.4605042,7.91260504 L3.5394958,7.91260504 C3.53613445,7.91260504 3.53277311,7.9092437 3.52941176,7.9092437 C3.52605042,7.9092437 3.52268908,7.91260504 3.51932773,7.91260504 L2.13445378,7.91260504 L11.8453782,1.14957983 Z M13.8386555,19.0487395 L16.7596639,19.0487395 L16.7596639,8.9210084 L13.8386555,8.9210084 L13.8386555,19.0487395 L13.8386555,19.0487395 Z M10.897479,19.0487395 L12.8369748,19.0487395 L12.8369748,8.9210084 L10.897479,8.9210084 L10.897479,19.0487395 Z M6.97142857,19.0487395 L9.89243697,19.0487395 L9.89243697,8.9210084 L6.97142857,8.9210084 L6.97142857,19.0487395 L6.97142857,19.0487395 Z M17.7613445,19.0487395 L19.7008403,19.0487395 L19.7008403,8.9210084 L17.7613445,8.9210084 L17.7613445,19.0487395 Z M23.092437,19.0487395 L20.702521,19.0487395 L20.702521,8.9210084 L23.1563025,8.9210084 C23.3747899,8.9210084 23.5697479,8.77983193 23.6336134,8.56806723 C23.697479,8.35630252 23.6201681,8.12773109 23.4420168,8.00336134 L12.1310924,0.121008403 C11.9596639,-1.00613962e-16 11.7310924,-1.00613962e-16 11.5596639,0.121008403 L0.248739496,8.00336134 C0.0672268908,8.12773109 -0.0100840336,8.35630252 0.0537815126,8.56806723 C0.121008403,8.77983193 0.312605042,8.9210084 0.534453782,8.9210084 L3.02857143,8.9210084 L3.02857143,19.0487395 L0.598319328,19.0487395 C0.319327731,19.0487395 0.0974789916,19.2739496 0.0974789916,19.5529412 L0.0974789916,23.1563025 C0.0974789916,23.4352941 0.322689076,23.6605042 0.598319328,23.6605042 L23.092437,23.6605042 C23.3714286,23.6605042 23.5932773,23.4352941 23.5932773,23.1563025 L23.5932773,19.5529412 C23.5932773,19.2739496 23.3680672,19.0487395 23.092437,19.0487395 Z" id="Museo_1Light"></path>
        </g>
    </g>
</svg>

<svg width="24" height="24" viewBox="0 0 24 24" xmlns="http://www.w3.org/2000/svg"><path d="M1.1 22.652h21.488v-2.595H1.1v2.595zm2.93-3.603h1.94V8.92H4.03v10.128zm7.815-17.9l9.708 6.764h-1.345c-.003 0-.006-.004-.01-.004-.003 0-.006.004-.01.004h-2.92c-.004 0-.007-.004-.01-.004-.004 0-.008.004-.01.004h-3.903c-.004 0-.007-.004-.01-.004-.004 0-.007.004-.01.004h-2.922c-.003 0-.006-.004-.01-.004-.003 0-.006.004-.01.004H6.481c-.004 0-.007-.004-.01-.004-.004 0-.007.004-.01.004H3.539c-.003 0-.006-.004-.01-.004-.003 0-.006.004-.01.004H2.134l9.711-6.763zm1.994 17.9h2.92V8.92h-2.92v10.128zm-2.942 0h1.94V8.92h-1.94v10.128zm-3.926 0h2.921V8.92h-2.92v10.128zm10.79 0h1.94V8.92h-1.94v10.128zm5.331 0h-2.39V8.92h2.454a.497.497 0 00.478-.353.509.509 0 00-.192-.565L12.132.121a.495.495 0 00-.572 0L.249 8.003a.506.506 0 00-.195.565.501.501 0 00.48.353H3.03v10.128H.599a.5.5 0 00-.502.504v3.603c0 .28.226.505.501.505h22.494a.5.5 0 00.501-.505v-3.603a.503.503 0 00-.5-.504z" fill="#5CB615" fill-rule="nonzero"/></svg>
